X:468380
T: Arthur Mcbride
M: 6/8
L: 1/8
R: jig
K: Gmaj
|: D |\
GAG GDE | GAG GAB | cec BdB | ABG E2 D |
GDE G2 D | GAG GB/c/d | edc B/c/dG | AGF G2 :|
|: B |\
c2 G cde | ed^c d2 B | cdc B/c/dG | ABG E2 D |
GD/D/D ED/D/D | GAG Bcd | edc BAG | A3 G2 :|

